def space_invade():
  set_analog_inputrange(0, 0)
  set_analog_inputrange(1, 0)
  set_analog_inputrange(2, 0)
  set_analog_inputrange(3, 0)
  set_analog_outputdomain(0, 0)
  set_analog_outputdomain(1, 0)
  set_tool_voltage(0)
  set_runstate_outputs([])
  set_payload(0.0)
  set_gravity([0.0, 0.0, 9.82])
  while (True):
    $ 1 "Programme de robot"
    $ 2 "DéplacementA"
    $ 3 "Point_de_passag_1"
    movej([-1.2772846985057047, -0.9060353215005833, 1.6476303181502727, -0.9876019623392013, 1.709633560416339, 0.09586718395502883], a=3.141592653589793, v=0.2)
    $ 4 "Point_de_passag_2"
    movej([-1.2702620897176597, -0.6837425542816983, 1.6369132188999922, -0.9895778254678864, 1.709633560416339, 0.09586718395502883], a=3.141592653589793, v=0.2)
    $ 5 "Point_de_passag_3"
    movej([-1.2646240519887604, -0.7007374635148125, 1.6889202169627273, -1.040644908763096, 1.7156575029706378, 0.09601300800368379], a=3.141592653589793, v=0.2)
    $ 6 "Point_de_passag_4"
    movej([-1.3951634585423305, -0.7306381493947751, 1.7719283148067886, -1.1020756621355274, 1.5857188799867457, 0.10270126011296608], a=3.141592653589793, v=0.2)
    $ 7 "Point_de_passag_5"
    movej([-1.3961237816482397, -0.710913125071249, 1.7236588865000817, -1.0737041122195075, 1.580132421562637, 0.10291956475385192], a=3.141592653589793, v=0.2)
    $ 8 "Point_de_passag_6"
    movej([-1.4208753542175083, -0.7169377003923493, 1.7348743441504135, -1.0737041122195075, 1.580132421562637, 0.10291956475385192], a=3.141592653589793, v=0.2)
    $ 9 "Point_de_passag_7"
    movej([-1.4204187648359943, -0.7473555998528806, 1.7966852563088143, -1.0752100858738571, 1.580132421562637, 0.10291956475385192], a=3.141592653589793, v=0.2)
    $ 10 "Point_de_passag_8"
    movej([-1.4503706409331656, -0.7535633644379874, 1.8135104689172694, -1.0907159591579265, 1.5440927893090284, 0.10338089749160442], a=3.141592653589793, v=0.2)
    $ 11 "Point_de_passag_9"
    movej([-1.4513780955987823, -0.7209891354007526, 1.731881566808009, -1.0407822000436178, 1.5423684990295679, 0.10335703689981678], a=3.141592653589793, v=0.2)
    $ 12 "Point_de_passag_10"
    movej([-1.4736446832075432, -0.7233946409816883, 1.7336177070889773, -1.0307664559838638, 1.5412018946561032, 0.10335703689981678], a=3.141592653589793, v=0.2)
    $ 13 "Point_de_passag_11"
    movej([-1.4745012964290183, -0.7859584628687168, 1.864360468362329, -1.0473894387925362, 1.5412018946561032, 0.10335703689981678], a=3.141592653589793, v=0.2, r=0.013000000000000001)
    $ 14 "Point_de_passag"
    movej([-1.4486291317194393, -0.7826828514269597, 1.8581473412360507, -1.048603776333801, 1.5411856919840305, 0.10335703689981678], a=3.141592653589793, v=0.2)
    $ 15 "Point_de_passag_13"
    movej([-1.4484742252262093, -0.7968964553524529, 1.9219341420893947, -1.1402523093901307, 1.5412180973281762, 0.10335703689981678], a=3.141592653589793, v=0.2)
    $ 16 "Point_de_passag_14"
    movej([-1.423233721847149, -0.7944208915906172, 1.9182585068076765, -1.1403981334387856, 1.5412180973281762, 0.10335703689981678], a=3.141592653589793, v=0.2)
    $ 17 "Point_de_passag_15"
    movej([-1.4232054390763729, -0.8111383420487227, 1.949444106128265, -1.1346172429498036, 1.5412180973281762, 0.10335703689981678], a=3.141592653589793, v=0.2)
    $ 18 "Point_de_passag_16"
    movej([-1.3969615332976097, -0.8064175417403524, 1.9427608969811265, -1.1431107986989102, 1.5412180973281762, 0.10335703689981678], a=3.141592653589793, v=0.2)
    $ 19 "Point_de_passag_17"
    movej([-1.3937896317402876, -0.8419468313673693, 2.0090286369206494, -1.1320018057063406, 1.5412180973281762, 0.10335703689981678], a=3.141592653589793, v=0.2)
    $ 20 "Point_de_passag_18"
    movej([-1.4200470237668101, -0.845458138957185, 2.0199141225203334, -1.1321476297549955, 1.5412180973281762, 0.10335703689981678], a=3.141592653589793, v=0.2)
    $ 21 "Point_de_passag_19"
    movej([-1.4221926154779982, -0.8301198842338805, 1.9884187102132849, -1.1360098098838687, 1.5412180973281762, 0.10335703689981678], a=3.141592653589793, v=0.2)
    $ 22 "Point_de_passag_20"
    movej([-1.3673194637953117, -0.8187724403199249, 1.9719033041997038, -1.1537499142013694, 1.5412343000002489, 0.10335703689981678], a=3.141592653589793, v=0.2)
    $ 23 "Point_de_passag_21"
    movej([-1.3691323350736075, -0.8004360393214587, 1.9373949554860648, -1.1572965736569203, 1.5412180973281762, 0.10335703689981678], a=3.141592653589793, v=0.2)
    $ 24 "Point_de_passag_22"
    movej([-1.3030854947591264, -0.783807502224771, 1.9195151438691118, -1.1951577122224257, 1.541153286639885, 0.10335703689981678], a=3.141592653589793, v=0.2)
    $ 25 "Point_de_passag_23"
    movej([-1.2964305747743508, -0.8021438968316507, 1.953129169000242, -1.192607085667254, 1.541153286639885, 0.10335703689981678], a=3.141592653589793, v=0.2)
    $ 26 "Point_de_passag_24"
    movej([-1.2482029154861811, -0.7910321490657536, 1.9215771975432272, -1.1734820843196279, 1.541153286639885, 0.10335703689981678], a=3.141592653589793, v=0.2)
    $ 27 "Point_de_passag_25"
    movej([-1.2419197301790028, -0.8058760976549219, 1.9527385727505395, -1.1745753332524433, 1.541153286639885, 0.10335703689981678], a=3.141592653589793, v=0.2)
    $ 28 "Point_de_passag_26"
    movej([-1.2660544443323563, -0.8117875418929156, 1.9737202341355014, -1.1968095219096555, 1.541153286639885, 0.10335703689981678], a=3.141592653589793, v=0.2)
    $ 29 "Point_de_passag_27"
    movej([-1.2762678098582425, -0.7790354989160184, 1.9077259070966592, -1.194995685501698, 1.5411370839678122, 0.10335703689981678], a=3.141592653589793, v=0.2)
    $ 30 "Point_de_passag_28"
    movej([-1.2553521416050923, -0.77366955102937, 1.8952295882716168, -1.195700070304767, 1.5411370839678122, 0.10335703689981678], a=3.141592653589793, v=0.2)
    $ 31 "Point_de_passag_29"
    movej([-1.2568916127658811, -0.7547687984990407, 1.8580719141223936, -1.195700070304767, 1.5411370839678122, 0.10335703689981678], a=3.141592653589793, v=0.2)
    $ 32 "Point_de_passag_30"
    movej([-1.2346627419097427, -0.7466215453047712, 1.843430003586163, -1.1980886701392113, 1.5411370839678122, 0.10335703689981678], a=3.141592653589793, v=0.2)
    $ 33 "Point_de_passag_31"
    movej([-1.2395896453201383, -0.7303324014574032, 1.8093176200549825, -1.193870031224737, 1.5411370839678122, 0.10335703689981678], a=3.141592653589793, v=0.2)
    $ 34 "Point_de_passag_32"
    movej([-1.215228669000572, -0.7220302417699037, 1.7919267392478222, -1.1950357487655585, 1.5411370839678122, 0.10335703689981678], a=3.141592653589793, v=0.2)
    $ 35 "Point_de_passag_33"
    movej([-1.233198697862612, -0.6605627879099097, 1.6711953054474185, -1.19542462487953, 1.5411856919840305, 0.10335703689981678], a=3.141592653589793, v=0.2)
    $ 36 "Point_de_passag_34"
    movej([-1.254312345511198, -0.6741366195814689, 1.632912986891971, -1.0281024107241825, 1.5412018946561032, 0.10335703689981678], a=3.141592653589793, v=0.2)
    $ 37 "Point_de_passag_35"
    movej([-1.2477934640559614, -0.706248890304432, 1.6963657570371655, -1.0293090783615075, 1.5411694893119579, 0.10335703689981678], a=3.141592653589793, v=0.2)
    $ 38 "Point_de_passag_36"
    movej([-1.270041196484204, -0.7117980210635004, 1.7084337692514708, -1.0288878088876154, 1.5411694893119579, 0.10335703689981678], a=3.141592653589793, v=0.2)
    $ 39 "Point_de_passag_37"
    movej([-1.2758071618192268, -0.6807349804162776, 1.6533532105830888, -1.0489354876949715, 1.5412018946561032, 0.10335703689981678], a=3.141592653589793, v=0.2)
    $ 40 "Point_de_passag_38"
    movej([-1.298685238911145, -0.686284111175346, 1.666446222368272, -1.0487658030545288, 1.5411856919840305, 0.10335703689981678], a=3.141592653589793, v=0.2)
    $ 41 "Point_de_passag_39"
    movej([-1.302153460815581, -0.6688420337593901, 1.632267839313693, -1.0500125339557143, 1.5411856919840305, 0.10335703689981678], a=3.141592653589793, v=0.2)
    $ 42 "Point_de_passag_40"
    movej([-1.3454394137787515, -0.681163287027015, 1.6573022459823141, -1.0528872259365665, 1.5411856919840305, 0.10335703689981678], a=3.141592653589793, v=0.2)
    $ 43 "Point_de_passag_41"
    movej([-1.3446016557377947, -0.6973258071519297, 1.6937487794214467, -1.061672429782983, 1.5411856919840305, 0.10335703689981678], a=3.141592653589793, v=0.2)
    $ 44 "Point_de_passag_60"
    movej([-1.2996361280352087, -0.6865615763419414, 1.6729462422514034, -1.069501663992881, 1.5412829080164672, 0.10321121285116182], a=3.141592653589793, v=0.2)
    $ 45 "Point_de_passag_42"
    movej([-1.353252642656459, -0.7127583377778229, 1.7023337732082995, -1.0492919464805723, 1.5411856919840305, 0.10335703689981678], a=3.141592653589793, v=0.2)
    $ 46 "Point_de_passag_43"
    movej([-1.3580529287359884, -0.700591991003428, 1.6965825980047065, -1.050652108070492, 1.5411856919840305, 0.10335703689981678], a=3.141592653589793, v=0.2)
    $ 47 "Point_de_passag_44"
    movej([-1.36123425788357, -0.6825896207131104, 1.6752238266178034, -1.0956142354510392, 1.5411856919840305, 0.10335703689981678], a=3.141592653589793, v=0.2)
    $ 48 "Point_de_passag_45"
    movej([-1.4052542653948503, -0.6932447790974934, 1.6893202344111016, -1.07126689238462, 1.5411856919840305, 0.10335703689981678], a=3.141592653589793, v=0.2)
    $ 49 "Point_de_passag_46"
    movej([-1.4028958977652097, -0.7110545389251323, 1.6956128473085386, -0.9895854833876012, 1.5411856919840305, 0.10335703689981678], a=3.141592653589793, v=0.2)
    $ 50 "Point_de_passag_47"
    movej([-1.3582172564278903, -0.701514597356715, 1.6934524590743338, -1.040288449977495, 1.5411856919840305, 0.10335703689981678], a=3.141592653589793, v=0.2)
    $ 51 "Point_de_passag_48"
    movej([-1.2817657440085153, -0.8055137905675832, 1.803872192788762, -0.9698780606937735, 1.5411208812957395, 0.10335703689981678], a=3.141592653589793, v=0.2)
    $ 52 "Point_de_passag_49"
    movej([-1.281845229779674, -0.7676126342799917, 1.7975041591692538, -0.9698942633658463, 1.5411208812957395, 0.10335703689981678], a=3.141592653589793, v=0.2)
    $ 53 "Point_de_passag_50"
    movej([-1.286607799106581, -0.7499631498783405, 1.7763527947680462, -1.00964171893154, 1.5411370839678122, 0.10335703689981678], a=3.141592653589793, v=0.2)
    $ 54 "Point_de_passag_51"
    movej([-1.3094158244091858, -0.7560537183312529, 1.7954097640668616, -1.0281834240845464, 1.5409673993273696, 0.10335703689981678], a=3.141592653589793, v=0.2)
    $ 55 "Point_de_passag_52"
    movej([-1.3055852826342376, -0.7726674652965106, 1.839099799527495, -1.051648140970871, 1.5409673993273696, 0.10335703689981678], a=3.141592653589793, v=0.2)
    $ 56 "Point_de_passag_53"
    movej([-1.2834453251395166, -0.7663937075795917, 1.8332166380602777, -1.0720684932201257, 1.5409673993273696, 0.10335703689981678], a=3.141592653589793, v=0.2)
    $ 57 "Point_de_passag_66"
    movej([-1.301828857697691, -0.7675372135579207, 1.8335183273401485, -1.0728376887114859, 1.5414125293930494, 0.10321121285116182], a=3.141592653589793, v=0.2)
    $ 58 "Point_de_passag_67"
    movej([-1.285916823852265, -0.7589670162940848, 1.818848134033141, -1.070562519565776, 1.5414125293930494, 0.10321121285116182], a=3.141592653589793, v=0.2)
    $ 59 "Point_de_passag_68"
    movej([-1.3032363425948548, -0.7598559773354241, 1.818848134033141, -1.0704977088774847, 1.5414125293930494, 0.10321121285116182], a=3.141592653589793, v=0.2)
    $ 60 "Point_de_passag_69"
    movej([-1.2884435842228958, -0.755276590880937, 1.8089593652335587, -1.07049769689326, 1.541428732065122, 0.10321121285116182], a=3.141592653589793, v=0.2)
    $ 61 "Point_de_passag_70"
    movej([-1.3075665466535238, -0.7576349585105782, 1.8133272860448493, -1.0718502005634647, 1.5414611374092677, 0.1032274155232346], a=3.141592653589793, v=0.2)
	popup("Point 61", title="Message", blocking=True)
    $ 62 "Point_de_passag_54"
    movej([-1.373876049219997, -0.7852715462719019, 1.8448751988443624, -1.0727976254476255, 1.5409836019994423, 0.10335703689981678], a=3.141592653589793, v=0.2)
	popup("Point 62", title="Message", blocking=True)
    $ 63 "Point_de_passag_55"
    movej([-1.3739137595810327, -0.770422228749976, 1.8488942860329018, -1.091177303879904, 1.541016007343588, 0.10335703689981678], a=3.141592653589793, v=0.2)
    $ 64 "Point_de_passag_56"
    movej([-1.3723796637445878, -0.7873942241450711, 1.8795101712804554, -1.0812749785246591, 1.5409998046715152, 0.10335703689981678], a=3.141592653589793, v=0.2)
    $ 65 "Point_de_passag_57"
    movej([-1.3971878018554102, -0.7917379208430864, 1.8920765355032252, -1.094059653780471, 1.541016007343588, 0.10335703689981678], a=3.141592653589793, v=0.2)
    $ 66 "Point_de_passag_58"
    movej([-1.397888204699985, -0.773716695372251, 1.874493050624972, -1.1364711426216212, 1.541016007343588, 0.10335703689981678], a=3.141592653589793, v=0.2)
    $ 67 "Point_de_passag_59"
    movej([-1.3732362769660629, -0.7700127773197564, 1.865028529778626, -1.1326413798211183, 1.5411694893119579, 0.10321121285116182], a=3.141592653589793, v=0.2)
    $ 68 "Point_de_passag_61"
    movej([-1.3726099845683022, -0.7823205379480345, 1.8819533872224268, -1.1123421041960881, 1.541153286639885, 0.10321121285116182], a=3.141592653589793, v=0.2)
    $ 69 "Point_de_passag_62"
    movej([-1.390301244380077, -0.7847018258072813, 1.8874688662779615, -1.1109904873585263, 1.541153286639885, 0.10321121285116182], a=3.141592653589793, v=0.2)
    $ 70 "Point_de_passag_63"
    movej([-1.374902365457718, -0.7804093321096485, 1.8747475955619617, -1.1114194267363582, 1.540951196655297, 0.10321121285116182], a=3.141592653589793, v=0.2)
    $ 71 "Point_de_passag_64"
    movej([-1.390602927268361, -0.7803716153570263, 1.8746950886779103, -1.1116786694895224, 1.540951196655297, 0.10321121285116182], a=3.141592653589793, v=0.2)
  end
end
